src/assets/icons/information.svg

<svg fill="none" height="92" viewBox="0 0 92 92" width="92" xmlns="http://www.w3.org/2000/svg"><path d="m50.5834 32.2498h-9.1667v-9.1666h9.1667m0 45.8333h-9.1667v-27.5h9.1667m-4.5833-41.249996c-6.0189 0-11.9789 1.185516-17.5397 3.488856-5.5607 2.30334-10.6134 5.6794-14.8694 9.93544-8.5954 8.5954-13.424252 20.2533-13.424252 32.409 0 12.1558 4.828852 23.8137 13.424252 32.4091 4.256 4.256 9.3087 7.6321 14.8694 9.9354 5.5608 2.3034 11.5208 3.4889 17.5397 3.4889 12.1557 0 23.8136-4.8289 32.409-13.4243 8.5955-8.5954 13.4243-20.2533 13.4243-32.4091 0-6.0189-1.1855-11.9789-3.4888-17.5396-2.3034-5.5608-5.6794-10.6134-9.9355-14.8694-4.256-4.25604-9.3086-7.6321-14.8694-9.93544-5.5607-2.30334-11.5207-3.488856-17.5396-3.488856z" fill="#2e90fa"/></svg>

<svg width="92" height="92" viewBox="0 0 92 92" fill="none" xmlns="http://www.w3.org/2000/svg">
<path d="M50.5834 32.2498H41.4167V23.0832H50.5834M50.5834 68.9165H41.4167V41.4165H50.5834M46.0001 0.166504C39.9812 0.166504 34.0212 1.35202 28.4604 3.65536C22.8997 5.9587 17.847 9.33476 13.591 13.5908C4.9956 22.1862 0.166748 33.8441 0.166748 45.9998C0.166748 58.1556 4.9956 69.8135 13.591 78.4089C17.847 82.6649 22.8997 86.041 28.4604 88.3443C34.0212 90.6477 39.9812 91.8332 46.0001 91.8332C58.1558 91.8332 69.8137 87.0043 78.4091 78.4089C87.0046 69.8135 91.8334 58.1556 91.8334 45.9998C91.8334 39.9809 90.6479 34.0209 88.3446 28.4602C86.0412 22.8994 82.6652 17.8468 78.4091 13.5908C74.1531 9.33476 69.1005 5.9587 63.5397 3.65536C57.979 1.35202 52.019 0.166504 46.0001 0.166504Z" fill="#2E90FA"/>
</svg>
